X:1
T:Gavotte des vieux
C:Trad. Bretagne, abc file by Bernard Loffet
L:1/8
Q:240
M:6/8
K:G
|:[A2A,2]c[B2A,2]A|[G2G,2]A[B2G,2]A|[B2C,2]e[e2C,2]d/c/|[d2D,2]c/d/[e3E,3]:|:[A2A,2]c[B2A,2]A|[G2G,2]A[B2G,2]A|[B2E,2]d[c2E,2]B|[A3A,3][A3A,3]:|:d/c/B[d/G,/G,/]c/B[GG,G,]d| \
G2[dG,G,]B[G2G,2G,2]|z2[dG,G,]d[gG,G,]d|z2[cD,D]z[d2D,2D2]|z2[d/G,/G,/]c/B[GG,G,]d|G2[dG,G,]B[G2G,2G,2]|z2[AD,D]c[BD,D]A|z2[GG,G,]z[G2G,2G,2]:| \
Z:Created with TablEdit http://www.tabledit.com/ by Bernard Loffet
